Papirus/64x64/mimetypes/text-x-coffeescript.svg

<?xml version="1.0" encoding="UTF-8" standalone="no"?>
<svg
   id="_图层_1"
   data-name="图层_1"
   version="1.1"
   viewBox="0 0 128 128"
   width="64"
   height="64"
   sodipodi:docname="text-x-coffeescript.svg"
   xml:space="preserve"
   inkscape:version="1.4 (e7c3feb100, 2024-10-09)"
   xmlns:inkscape="http://www.inkscape.org/namespaces/inkscape"
   xmlns:sodipodi="http://sodipodi.sourceforge.net/DTD/sodipodi-0.dtd"
   xmlns="http://www.w3.org/2000/svg"
   xmlns:svg="http://www.w3.org/2000/svg"><sodipodi:namedview
     id="namedview3"
     pagecolor="#505050"
     bordercolor="#eeeeee"
     borderopacity="1"
     inkscape:showpageshadow="0"
     inkscape:pageopacity="0"
     inkscape:pagecheckerboard="0"
     inkscape:deskcolor="#505050"
     inkscape:zoom="10.6875"
     inkscape:cx="32"
     inkscape:cy="26.19883"
     inkscape:window-width="1920"
     inkscape:window-height="939"
     inkscape:window-x="0"
     inkscape:window-y="34"
     inkscape:window-maximized="1"
     inkscape:current-layer="_图层_1"
     showguides="true"><sodipodi:guide
       position="7.6134526,83.439664"
       orientation="1,0"
       id="guide7"
       inkscape:locked="false" /><sodipodi:guide
       position="120.24109,71.856006"
       orientation="1,0"
       id="guide8"
       inkscape:locked="false" /></sodipodi:namedview><!-- Generator: Adobe Illustrator 29.0.1, SVG Export Plug-In . SVG Version: 2.1.0 Build 192)  --><defs
     id="defs1"><style
       id="style1">
      .st0 {
        fill: #0071e9;
      }

      .st1 {
        fill: #fff;
      }

      .st2 {
        fill: #5aaaff;
        isolation: isolate;
        opacity: .5;
      }
    </style></defs><path
     class="st0"
     d="M18.2,0c-5.6,0-10.2,4.6-10.2,10.2v107.6c0,5.6,4.6,10.2,10.2,10.2h91.6c5.6,0,10.2-4.6,10.2-10.2V40.6L82.2,0H18.2Z"
     id="path1"
     style="fill:#6c5348;fill-opacity:1" /><path
     class="st2"
     d="m 82.761404,2.619883 v 29.2 c 0,3.2 2.145542,11.6 11.89801,11.6 h 24.966316 z"
     id="path2"
     style="fill:#56423a;fill-opacity:1;stroke-width:0.987546" /><path
     class="st2"
     d="M 82.116964,0.02339171 V 29.223392 c 0,3.2 2.2,11.6 12.2,11.6 h 25.599996 z"
     id="path2-3"
     style="opacity:1;isolation:isolate;fill:#927262;fill-opacity:1" /><g
     id="g8"
     transform="matrix(2.5486443,0,0,2.2823433,-17.650186,-8.9831743)"><path
       style="opacity:0.2"
       d="m 23.106,23.38 c -6.934,8.85 2.987,7.201 1.26,13.672 0,0 4.009,-2.59 -0.575,-6.647 -3.343,-2.959 -0.685,-7.025 -0.685,-7.025 z"
       id="path6" /><path
       style="fill:#938179"
       d="m 23.106,22.38 c -6.934,8.85 2.987,7.201 1.26,13.672 0,0 4.009,-2.59 -0.575,-6.647 -3.343,-2.959 -0.685,-7.025 -0.685,-7.025 z"
       id="path7" /><path
       style="opacity:0.2"
       d="m 29.256,18.001 c -10.935,14.021 6.372,8.482 -4.147,27.509 0,0 10.657,-7.245 5.948,-14.492 -3.07,-4.725 -4.435,-5.315 -1.801,-13.017 z"
       id="path8" /><path
       style="fill:#c5bcb7"
       d="m 29.256,17.001 c -10.935,14.021 6.372,8.482 -4.147,27.509 0,0 10.657,-7.245 5.948,-14.492 -3.07,-4.725 -4.435,-5.315 -1.801,-13.017 z"
       id="path9" /><path
       style="opacity:0.2"
       d="M 38,40 H 19 c 0,6.874 1.312,10.312 4,13 h 12 c 2.485,-2.485 2.036,-2.502 2.326,-2.782 0.29,-0.28 0.013,0.388 2.718,-0.952 2.223,-1.101 4.947,-5.02 4.956,-6.184 0.004,-0.551 -0.066,-1.001 -1.077,-1.015 L 39,42 c 0,0 0,-2 -1,-2 z m -5,2 h 2 c 0,0 0.399,6.583 -2.562,8.739 -0.804,0.586 -1.477,0.039 -1.164,-0.401 C 33.624,47.037 32.887,44.114 33,42 Z m 8.373,2 c 1.868,0 -0.885,2.906 -1.615,3.448 C 39.35,47.746 37.56,48.576 38.108,47 38.828,44.927 39,44 39,44 Z"
       id="path10" /><path
       style="fill:#e7e3d9"
       d="M 38,39 H 19 c 0,6.874 1.312,10.312 4,13 h 12 c 2.485,-2.485 2.036,-2.502 2.326,-2.782 0.29,-0.28 0.013,0.388 2.718,-0.952 2.223,-1.101 4.947,-5.02 4.956,-6.184 0.004,-0.551 -0.066,-1.001 -1.077,-1.015 L 39,41 c 0,0 0,-2 -1,-2 z m -5,2 h 2 c 0,0 0.399,6.583 -2.562,8.739 -0.804,0.586 -1.477,0.039 -1.164,-0.401 C 33.624,46.037 32.887,43.114 33,41 Z m 8.373,2 c 1.868,0 -0.885,2.906 -1.615,3.448 C 39.35,46.746 37.56,47.576 38.108,46 38.828,43.927 39,43 39,43 Z"
       id="path11" /></g></svg>

<svg xmlns="http://www.w3.org/2000/svg" width="64" height="64" version="1.1">
 <path style="opacity:0.2" d="m12.75 5c-1.5235 0-2.75 1.2488-2.75 2.8v50.4c0 1.55008 1.2265 2.8 2.75 2.8h38.5c1.5224 0 2.75-1.24992 2.75-2.8v-35.2l-14-4-4-14z"/>
 <path style="fill:#6c5348" d="m12.75 4c-1.5235 0-2.75 1.2488-2.75 2.8v50.4c0 1.55008 1.2265 2.8 2.75 2.8h38.5c1.5224 0 2.75-1.24992 2.75-2.8v-35.2l-14-4-4-14z"/>
 <path style="opacity:0.2" d="m54 23-18-18v15.1875c0 1.55925 1.2555 2.8125 2.8125 2.8125z"/>
 <path style="fill:#927262" d="m54 22-18-18v15.1875c0 1.55925 1.2555 2.8125 2.8125 2.8125z"/>
 <path style="fill:#ffffff;opacity:0.1" d="M 12.75,4 C 11.2265,4 10,5.24958 10,6.80078 v 1 C 10,6.24958 11.2265,5 12.75,5 H 36 V 4 Z"/>
 <path style="opacity:0.2" d="M 23.106,23.38 C 16.172,32.23 26.093,30.581 24.366,37.052 24.366,37.052 28.375,34.462 23.791,30.405 20.448,27.446 23.106,23.38 23.106,23.38 Z"/>
 <path style="fill:#938179" d="M 23.106,22.38 C 16.172,31.23 26.093,29.581 24.366,36.052 24.366,36.052 28.375,33.462 23.791,29.405 20.448,26.446 23.106,22.38 23.106,22.38 Z"/>
 <path style="opacity:0.2" d="M 29.256,18.001 C 18.321,32.022 35.628,26.483 25.109,45.51 25.109,45.51 35.766,38.265 31.057,31.018 27.987,26.293 26.622,25.703 29.256,18.001 Z"/>
 <path style="fill:#c5bcb7" d="M 29.256,17.001 C 18.321,31.022 35.628,25.483 25.109,44.51 25.109,44.51 35.766,37.265 31.057,30.018 27.987,25.293 26.622,24.703 29.256,17.001 Z"/>
 <path style="opacity:0.2" d="M 38,40 H 19 C 19,46.874 20.312,50.312 23,53 H 35 C 37.485,50.515 37.036,50.498 37.326,50.218 37.616,49.938 37.339,50.606 40.044,49.266 42.267,48.165 44.991,44.246 45,43.082 45.004,42.531 44.934,42.081 43.923,42.067 L 39,42 C 39,42 39,40 38,40 Z M 33,42 H 35 C 35,42 35.399,48.583 32.438,50.739 31.634,51.325 30.961,50.778 31.274,50.338 33.624,47.037 32.887,44.114 33,42 Z M 41.373,44 C 43.241,44 40.488,46.906 39.758,47.448 39.35,47.746 37.56,48.576 38.108,47 38.828,44.927 39,44 39,44 Z"/>
 <path style="fill:#e7e3d9" d="M 38,39 H 19 C 19,45.874 20.312,49.312 23,52 H 35 C 37.485,49.515 37.036,49.498 37.326,49.218 37.616,48.938 37.339,49.606 40.044,48.266 42.267,47.165 44.991,43.246 45,42.082 45.004,41.531 44.934,41.081 43.923,41.067 L 39,41 C 39,41 39,39 38,39 Z M 33,41 H 35 C 35,41 35.399,47.583 32.438,49.739 31.634,50.325 30.961,49.778 31.274,49.338 33.624,46.037 32.887,43.114 33,41 Z M 41.373,43 C 43.241,43 40.488,45.906 39.758,46.448 39.35,46.746 37.56,47.576 38.108,46 38.828,43.927 39,43 39,43 Z"/>
</svg>
